packages/icons/src/components/Icon/assets/small-outline/eye-off.svg

<svg width="16" height="16" viewBox="0 0 16 16" fill="none" xmlns="http://www.w3.org/2000/svg">
<path fill-rule="evenodd" clip-rule="evenodd" d="M1.85021 1.84981C2.07802 1.622 2.44737 1.622 2.67517 1.84981L4.40781 3.58244C5.46803 2.97955 6.69464 2.63522 8.00028 2.63522C11.2974 2.63522 14.0809 4.82742 14.9757 7.83247C15.0081 7.94104 15.0081 8.05668 14.9758 8.16526C14.5512 9.59277 13.7011 10.8357 12.5734 11.748L14.1504 13.325C14.3782 13.5528 14.3782 13.9222 14.1504 14.15C13.9226 14.3778 13.5532 14.3778 13.3254 14.15L1.85021 2.67477C1.62241 2.44696 1.62241 2.07762 1.85021 1.84981ZM11.7429 10.9176C12.6943 10.1791 13.4213 9.16625 13.8054 7.99903C13.0024 5.56094 10.706 3.80189 8.00028 3.80189C7.01812 3.80189 6.0911 4.03322 5.26966 4.4443L6.69663 5.87127C7.07601 5.63853 7.52271 5.50402 8.00029 5.50402C9.37872 5.50402 10.4962 6.62146 10.4962 7.99989C10.4962 8.47748 10.3617 8.92418 10.1289 9.30356L11.7429 10.9176ZM9.25771 8.43235C9.30428 8.29683 9.3295 8.1514 9.3295 7.99989C9.3295 7.26579 8.73439 6.67069 8.00029 6.67069C7.84878 6.67069 7.70335 6.69591 7.56784 6.74248L9.25771 8.43235ZM3.26415 5.14638C3.51011 5.35444 3.54084 5.72251 3.33277 5.96847C2.83195 6.56052 2.44208 7.24861 2.19457 8.00074C2.99763 10.4388 5.29398 12.1979 7.99972 12.1979C8.5783 12.1979 9.13717 12.1176 9.66628 11.968C9.97629 11.8804 10.2987 12.0606 10.3863 12.3706C10.474 12.6806 10.2938 13.003 9.98374 13.0907C9.35236 13.2692 8.68669 13.3646 7.99972 13.3646C4.70264 13.3646 1.91909 11.1724 1.02426 8.16731C0.99193 8.05874 0.991913 7.9431 1.02421 7.83452C1.31418 6.85967 1.8026 5.97093 2.44205 5.215C2.65012 4.96903 3.01818 4.93831 3.26415 5.14638Z" fill="black"/>
</svg>

<svg xmlns="http://www.w3.org/2000/svg" width="16" height="16" fill="none" viewBox="0 0 16 16">
    <path fill="#000" fill-rule="evenodd" d="M1.85 1.85a.583.583 0 0 1 .825 0l1.733 1.732a7.28 7.28 0 0 1 10.568 4.25.6.6 0 0 1 0 .333 7.3 7.3 0 0 1-2.403 3.583l1.577 1.577a.583.583 0 0 1-.825.825L1.85 2.675a.583.583 0 0 1 0-.825m9.893 9.068a6.1 6.1 0 0 0 2.062-2.919A6.113 6.113 0 0 0 5.27 4.444l1.427 1.427a2.496 2.496 0 0 1 3.432 3.432zM9.258 8.432q.07-.203.072-.432a1.33 1.33 0 0 0-1.762-1.258zM3.264 5.146a.583.583 0 0 1 .069.822 6.1 6.1 0 0 0-1.138 2.033 6.114 6.114 0 0 0 7.471 3.967.583.583 0 0 1 .318 1.123 7.28 7.28 0 0 1-8.96-4.923.6.6 0 0 1 0-.333 7.3 7.3 0 0 1 1.418-2.62.583.583 0 0 1 .822-.069" clip-rule="evenodd"/>
</svg>
